outputs/icons/general/activity_round.svg

<svg xmlns="http://www.w3.org/2000/svg" width="1200" height="1200" fill="none"><path fill="#000" fill-rule="evenodd" d="M479.844 350.108a57.9 57.9 0 0 1 48.936 33.304L686.34 721.04l88.25-141.2a57.9 57.9 0 0 1 49.095-27.21h173.68c31.975 0 57.895 25.92 57.895 57.895s-25.92 57.895-57.895 57.895H855.77L728.04 872.79a57.89 57.89 0 0 1-52.62 27.1 57.88 57.88 0 0 1-48.935-33.3L468.923 528.96l-88.25 141.2a57.9 57.9 0 0 1-49.094 27.21H157.894c-31.974 0-57.894-25.92-57.894-57.895s25.92-57.895 57.894-57.895H299.49l127.73-204.369a57.9 57.9 0 0 1 52.624-27.103"/></svg>

<svg width="1200" height="1200" viewBox="0 0 1200 1200" fill="none" xmlns="http://www.w3.org/2000/svg"><path fill-rule="evenodd" d="M479.844 350.108C501.025 351.401 519.805 364.181 528.78 383.412L686.34 721.04L774.59 579.84C785.17 562.915 803.72 552.63 823.685 552.63H997.365C1029.34 552.63 1055.26 578.55 1055.26 610.525C1055.26 642.5 1029.34 668.42 997.365 668.42H855.77L728.04 872.79C716.795 890.785 696.6 901.185 675.42 899.89C654.235 898.6 635.46 885.82 626.485 866.59L468.923 528.96L380.673 670.16C370.094 687.085 351.54 697.37 331.579 697.37H157.894C125.92 697.37 100 671.45 100 639.475C100 607.5 125.92 581.58 157.894 581.58H299.49L427.22 377.211C438.469 359.214 458.661 348.815 479.844 350.108Z" fill="black"/></svg>
